!!!OTL: DANN WANN DIE HAEHNE KRAEHEN
!!!ARE: Europa, Mitteleuropa, Deutschland, Herzogtum Berg
!!!SCT: Z0245
!!!YEM: Copyright 1995, estate of Helmut Schaffrath.
**kern
*ICvox
*Ivox
*M2/4
*k[f#]
*e:
{8e
=1
8e
8f#
8gn
8a
=2
4b
8b}
{8b
=3
8ccn
8b
8a#
8a#
=4
4b
8r}
{8b
=5
8a
8gn
8f#
8e
=6
4d#
8b}
{8a
=7
8gn
8f#
8e
8d#
=8
4e
8r}
==
!!!AGN: Romanze
!!!ONB: ESAC (Essen Associative Code) Database: ZUCCAL
!!!AMT: simple duple
!!!AIN: vox
!!!EED: Helmut Schaffrath
!!!EEV: 1.0
*-
